X:13013
T:Michael Turner's Waltz
R:Waltz
C:Mozart KV 536#2 1788
O:Germany, England
M:3/4
L:1/8
Q:1/4=100
K:G
GA|"G"B2BD"D7"cD|"G"d2d2gf|"C"e2e2ge|"G"d2d2"D7"GA|
"G"B2BD"D7"cD|"G"d2d2cA|"Am7"G2G2"D7"AB|"G"G2z2:|
|:"G"AB|"D7"c2cdBc|"D7"A2A2Bc|"G"d2decd|"Em"B2B2gf|
"C"e2e2ge|"G"d2d2GA|"C"B2Bc"D7"AB|"G"G2z2:|

